X:122
T:Milestone Jig
B:NFID.184
122mile
S:DOD
C:Arthur Darley
N:Darley (1873-1929) was a Dublin-area musician who was equally at home in
both the classical and traditional modes. He collaborated with P.J.McCall to
produce a collection of traditional tunes (dmac folder in webABC). He was
also head of the Irish Music Club and was the first music director for the
Abbey Theater. The "Swedish Jig" is probably his best-known composition.
L:1/8
M:6/8
R:jig
Q:320
K:G
P:Part 1
d2c|: B>AG D>GA|B>cd d>BG|cBc A>FD|A>Bc c>BA|
"5"B>AG D>GA|B/c/dB e>fg|d>cB A>Bc|1 B>GG G>dc:|2 B>GG G2||
P:part 2
B|"9"AFD DEF|GBc d2B|BAc BAG/B/|AGF FED|
"13"AFD DEF|GBd g2e|dcB ABc|1 BGG G2:|2 BGG GB||
P:part 3
d|"17"g2d BGG|Bcd dBG|c2B AFD|cBA def|
"21"g2d efg|a/a/ge d2e|dcB ABc|1 BGG GB:|2 BGG G2||
P:part 4
A|"25"D2A cBA|DEF GAB|D2B cBA|DEF G2A|
"29"D2A Bcd|efg age|dcB ABc|1 BGG G2:|2 BGG Gd||
P:Part 5
c|"33"B3 BAG|dcB BAG|A3 AFD|AGF ABc|
"37"B3 BAG|Bcd efg|edc BcA|1 BGG Gd:|1 BGG G2||
P:Part 6
B|"41"A3 AFD|ABc AFD|B3 Bcd|edc BAG|
"45"A3 ABc|AFD Bcd|edc BdA|1 BGG G2:|2 BGG GB||
P:Part 7
d|"49"g3 gdB|gdB BAG|A3 dAF|DFA cBA|
"53"g3 gdB|gfe dcB|edc BcA|1 BGG GB:|2 BGG G2||
P:Part 8
A|"57"D3 DFA|cBA AGF|GFG Bcd|edc BAG|
"61"D3 DFA|Bcd efg|age dcA|BGG G2:|

%%%

